X: 19252
T: Italian Rant
R: reel
M: 4/4
K: Dminor
DEFG A2AA|B2GB A2AA|G2GG F2GF|E2E2 D2zA|
DEFG A2A/A/A|B2AG GAA2|G2GA FzF2|EDEF D2Ac|
dzd2 c2c2|B2BB A3D|FGAF BBA2|{^F}G2GA F2zE|FGAB G2E2|
EFGA F2D2|DEFG A2dA|BBdBA2A2|G2GA FzF2|{D}E2EA D2zc|
d2d/d/d cz2A|B2DB A3D|FGAF B2A2|{^F}G2BA F2zE|FGAB GGED|
EFGA FFDE|DEFG A2A/A/A|B2DB EBFA|{^F}G2GA FzF2|ED{D}E2 D4|

